X:1
T:Herr und Ältster Deiner, 10.7.10.7.10.10.77
T:Herr und Ältster Deiner, 10.7.10.7.10.10.77
T:C. Luise Reichardt (1779-1826)
T:Public Domain Courtesy of the Cyber Hymnal™
C:C. Luise Reichardt (1779-1826)
Z:Public Domain
Z:Courtesy of the Cyber Hymnal™
%%score ( 1 2 ) ( 3 4 )
L:1/8
Q:1/4=110
M:4/4
K:F
V:1 treble 
V:2 treble 
V:3 bass 
V:4 bass 
V:1
|: [CF]2 [DF]2 D2 [DG]2 | [CF]2 [CE]2 [A,F]2 [Cc]2 | [CA]4 [CF]4 | [DF]2 [CF]2 D2 [FA]2 | %4
 [EG]2 [EG]2 F4 :| [CE]2 [CF]2 [CG]2 [Ec]2 | [Fc]2 [DB]2 [EB]2 [FA]2 | [FA]4 [EG]4 | %8
 [CE]2 [CF]2 [CG]2 [Ec]2 | [Fc]2 [DB]2 [EB]2 [FA]2 | [FA]4 [EG]4 | [CF]2 [DF]2 D2 [GB]2 | %12
 [FA]2 [EG]2 [DF]4 | [DF]2 [CF]2 [B,D]2 [DB]2 | [CA]4 [B,G]4 | [A,F]8 |] %16
V:2
|: x4 D2 x2 | x8 | x8 | x4 D2 x2 | x4 F4 :| x8 | x8 | x8 | x8 | x8 | x8 | x4 D2 x2 | x8 | x8 | x8 | %15
 x8 |] %16
V:3
|: [F,A,]2 [D,A,]2 [B,,B,]2 [G,,B,]2 | [A,,A,]2 [C,G,]2 [D,F,]2 [E,G,]2 | F,4 [F,,A,]4 | %3
 [B,,B,]2 [A,,C]2 [B,,B,]2 [G,,D]2 | [C,C]2 [C,B,]2 [F,,A,]4 :| [C,G,]2 [F,A,]2 [E,C]2 [C,G,]2 | %6
 [F,A,]2 [G,B,]2 [C,C]2 [F,C]2 | [F,C]4 [C,C]4 | [C,G,]2 [F,A,]2 [E,C]2 [C,G,]2 | %9
 [F,A,]2 [G,B,]2 [C,C]2 [F,C]2 | [F,C]4 [C,C]4 | [A,,F,]2 [D,A,]2 [B,,B,]2 [G,,D]2 | %12
 [C,C]2 [C,C]2 [D,A,]4 | [B,,B,]2 [A,,F,]2 [B,,F,]2 [G,,G,-]2 | [C,G,]4 z2 E,2 | [F,,F,]8 |] %16
V:4
|: x8 | x8 | F,4 x4 | x8 | x8 :| x8 | x8 | x8 | x8 | x8 | x8 | x8 | x8 | x8 | x4 C,4 | x8 |] %16

